assets/img/braze_icons/bezier-curve-01.svg

<svg fill="none" height="24" viewBox="0 0 24 24" width="24" xmlns="http://www.w3.org/2000/svg"><path d="m11.5681 4c-.2524-.00003-.4982-.00006-.7063.01695-.2286.01868-.4984.06274-.7698.20104-.3763.19175-.68226.49771-.87401.87403-.1383.27143-.18236.54116-.20104.76976-.00363.04445-.00649.09063-.00873.13822h-4.27578c-.34581-.5978-.99216-1-1.73244-1-1.10457 0-2 .89543-2 2s.89543 2 2 2c.74028 0 1.38663-.4022 1.73244-1h1.61073c-1.79684 1.45362-3.0229 3.5849-3.28889 6.0059-.0669.0025-.13132.0061-.1925.0111-.2286.0186-.49833.0627-.76976.201-.37632.1917-.68228.4977-.87403.874-.1383.2714-.18236.5412-.20104.7698-.017007.2081-.016977.4539-.01695.7063v.8638c-.000027.2524-.000057.4982.01695.7063.01868.2286.06274.4984.20104.7698.19175.3763.49771.6823.87403.874.27143.1383.54116.1824.76976.2011.20815.017.45394.0169.70633.0169h.86379c.25239 0 .49818.0001.70634-.0169.22859-.0187.49832-.0628.76975-.2011.37632-.1917.68228-.4977.87403-.874.1383-.2714.18236-.5412.20104-.7698.01701-.2081.01698-.4539.01695-.7063v-.8638c.00003-.2524.00006-.4982-.01695-.7063-.01868-.2286-.06274-.4984-.20104-.7698-.19175-.3763-.49771-.6823-.87403-.874-.27143-.1383-.54116-.1824-.76975-.201-.02258-.0019-.0456-.0035-.06901-.005.33969-2.4036 1.90042-4.41591 4.03512-5.38705.02828.093.06518.18792.11364.28304.19175.37632.49771.68228.87401.87403.2714.1383.5412.18236.7698.20104.2081.01704.4539.01694.7063.01694h.8638c.2524 0 .4982.0001.7063-.01694.2286-.01868.4984-.06274.7698-.20104.3763-.19175.6823-.49771.874-.87403.0485-.09512.0854-.19003.1137-.28304 2.1347.97115 3.6954 2.98345 4.0351 5.38705-.0234.0015-.0465.0031-.069.005-.2286.0186-.4984.0627-.7698.201-.3763.1917-.6823.4977-.874.874-.1383.2714-.1824.5412-.201.7698-.0171.2081-.017.4539-.017.7063v.8638c0 .2524-.0001.4982.017.7063.0186.2286.0627.4984.201.7698.1917.3763.4977.6823.874.874.2714.1383.5412.1824.7698.2011.2081.017.4539.0169.7063.0169h.8638c.2524 0 .4982.0001.7063-.0169.2286-.0187.4984-.0628.7698-.2011.3763-.1917.6823-.4977.874-.874.1383-.2714.1824-.5412.2011-.7698.017-.2081.0169-.4539.0169-.7063v-.8638c0-.2524.0001-.4982-.0169-.7063-.0187-.2286-.0628-.4984-.2011-.7698-.1917-.3763-.4977-.6823-.874-.874-.2714-.1383-.5412-.1824-.7698-.201-.0611-.005-.1256-.0086-.1925-.0111-.266-2.421-1.492-4.55228-3.2889-6.0059h1.6108c.3458.5978.9921 1 1.7324 1 1.1046 0 2-.89543 2-2s-.8954-2-2-2c-.7403 0-1.3866.4022-1.7324 1h-4.2758c-.0023-.04759-.0051-.09377-.0087-.13822-.0187-.2286-.0628-.49833-.2011-.76976-.1917-.37632-.4977-.68228-.874-.87403-.2714-.1383-.5412-.18236-.7698-.20104-.2081-.01701-.4539-.01698-.7063-.01695z" fill="#801ed7"/></svg>

<svg width="24" height="24" viewBox="0 0 24 24" fill="none" xmlns="http://www.w3.org/2000/svg">
<path d="M11.5681 4C11.3157 3.99997 11.0699 3.99994 10.8618 4.01695C10.6332 4.03563 10.3634 4.07969 10.092 4.21799C9.7157 4.40974 9.40974 4.7157 9.21799 5.09202C9.07969 5.36345 9.03563 5.63318 9.01695 5.86178C9.01332 5.90623 9.01046 5.95241 9.00822 6L4.73244 6C4.38663 5.4022 3.74028 5 3 5C1.89543 5 1 5.89543 1 7C1 8.10457 1.89543 9 3 9C3.74028 9 4.38663 8.5978 4.73244 8H6.34317C4.54633 9.45362 3.32027 11.5849 3.05428 14.0059C2.98738 14.0084 2.92296 14.012 2.86178 14.017C2.63318 14.0356 2.36345 14.0797 2.09202 14.218C1.7157 14.4097 1.40974 14.7157 1.21799 15.092C1.07969 15.3634 1.03563 15.6332 1.01695 15.8618C0.999943 16.0699 0.999973 16.3157 1 16.5681L1 17.4319C0.999973 17.6843 0.999943 17.9301 1.01695 18.1382C1.03563 18.3668 1.07969 18.6366 1.21799 18.908C1.40974 19.2843 1.7157 19.5903 2.09202 19.782C2.36345 19.9203 2.63318 19.9644 2.86178 19.9831C3.06993 20.0001 3.31572 20 3.56811 20H4.4319C4.68429 20 4.93008 20.0001 5.13824 19.9831C5.36683 19.9644 5.63656 19.9203 5.90799 19.782C6.28431 19.5903 6.59027 19.2843 6.78202 18.908C6.92032 18.6366 6.96438 18.3668 6.98306 18.1382C7.00007 17.9301 7.00004 17.6843 7.00001 17.4319V16.5681C7.00004 16.3157 7.00007 16.0699 6.98306 15.8618C6.96438 15.6332 6.92032 15.3634 6.78202 15.092C6.59027 14.7157 6.28431 14.4097 5.90799 14.218C5.63656 14.0797 5.36683 14.0356 5.13824 14.017C5.11566 14.0151 5.09264 14.0135 5.06923 14.012C5.40892 11.6084 6.96965 9.59609 9.10435 8.62495C9.13263 8.71795 9.16953 8.81287 9.21799 8.90799C9.40974 9.28431 9.7157 9.59027 10.092 9.78202C10.3634 9.92032 10.6332 9.96438 10.8618 9.98306C11.0699 10.0001 11.3157 10 11.5681 10H12.4319C12.6843 10 12.9301 10.0001 13.1382 9.98306C13.3668 9.96438 13.6366 9.92032 13.908 9.78202C14.2843 9.59027 14.5903 9.28431 14.782 8.90799C14.8305 8.81287 14.8674 8.71796 14.8957 8.62495C17.0304 9.5961 18.5911 11.6084 18.9308 14.012C18.9074 14.0135 18.8843 14.0151 18.8618 14.017C18.6332 14.0356 18.3634 14.0797 18.092 14.218C17.7157 14.4097 17.4097 14.7157 17.218 15.092C17.0797 15.3634 17.0356 15.6332 17.017 15.8618C16.9999 16.0699 17 16.3157 17 16.5681V17.4319C17 17.6843 16.9999 17.9301 17.017 18.1382C17.0356 18.3668 17.0797 18.6366 17.218 18.908C17.4097 19.2843 17.7157 19.5903 18.092 19.782C18.3634 19.9203 18.6332 19.9644 18.8618 19.9831C19.0699 20.0001 19.3157 20 19.5681 20H20.4319C20.6843 20 20.9301 20.0001 21.1382 19.9831C21.3668 19.9644 21.6366 19.9203 21.908 19.782C22.2843 19.5903 22.5903 19.2843 22.782 18.908C22.9203 18.6366 22.9644 18.3668 22.9831 18.1382C23.0001 17.9301 23 17.6843 23 17.4319V16.5681C23 16.3157 23.0001 16.0699 22.9831 15.8618C22.9644 15.6332 22.9203 15.3634 22.782 15.092C22.5903 14.7157 22.2843 14.4097 21.908 14.218C21.6366 14.0797 21.3668 14.0356 21.1382 14.017C21.0771 14.012 21.0126 14.0084 20.9457 14.0059C20.6797 11.5849 19.4537 9.45362 17.6568 8H19.2676C19.6134 8.5978 20.2597 9 21 9C22.1046 9 23 8.10457 23 7C23 5.89543 22.1046 5 21 5C20.2597 5 19.6134 5.4022 19.2676 6L14.9918 6C14.9895 5.95241 14.9867 5.90623 14.9831 5.86178C14.9644 5.63318 14.9203 5.36345 14.782 5.09202C14.5903 4.7157 14.2843 4.40974 13.908 4.21799C13.6366 4.07969 13.3668 4.03563 13.1382 4.01695C12.9301 3.99994 12.6843 3.99997 12.4319 4L11.5681 4Z" fill="#801ED7"/>
</svg>
